main/static/cat_map.3DL
#Created by: Adobe Photoshop Export Color Lookup Plugin
#Description: cat_map
0 33 66 99 132 165 198 231 264 297 330 363 396 429 462 495 528 561 594 627 660 693 726 759 792 825 858 891 924 957 990 1023
0 0 0
0 0 132
0 0 264
0 0 396
0 0 528
0 0 660
0 0 793
0 0 925
0 0 1057
0 0 1189
0 0 1321
0 0 1453
0 0 1585
0 0 1717
0 0 1849
0 0 1981
0 0 2114
0 0 2246
0 0 2378
0 0 2510
0 0 2642
0 0 2774
0 0 2906
0 0 3038
0 0 3170
0 0 3302
0 0 3435
0 0 3567
0 0 3699
0 0 3831
0 0 3963
0 0 4095
0 132 0
0 132 132
0 132 264
0 132 396
0 132 528
0 132 660
0 132 793
0 132 925
0 132 1057
0 132 1189
0 132 1321
0 132 1453
0 132 1585
0 132 1717
0 132 1849
0 132 1981
0 132 2114
0 132 2246
0 132 2378
0 132 2510
0 132 2642
0 132 2774
0 132 2906
0 132 3038
0 132 3170
0 132 3302
0 132 3435
0 132 3567
0 132 3699
0 132 3831
0 132 3963
0 132 4095
0 264 0
0 264 132
0 264 264
0 264 396
0 264 528
0 264 660
0 264 793
0 264 925
0 264 1057
0 264 1189
0 264 1321
0 264 1453
0 264 1585
0 264 1717
0 264 1849
0 264 1981
0 264 2114
0 264 2246
0 264 2378
0 264 2510
0 264 2642
0 264 2774
0 264 2906
0 264 3038
0 264 3170
0 264 3302
0 264 3435
0 264 3567
0 264 3699
0 264 3831
0 264 3963
0 264 4095
0 396 0
0 396 132
0 396 264
0 396 396
0 396 528
0 396 660
0 396 793
0 396 925
0 396 1057
0 396 1189
0 396 1321
0 396 1453
0 396 1585
0 396 1717
0 396 1849
0 396 1981
0 396 2114
0 396 2246
0 396 2378
0 396 2510
0 396 2642
0 396 2774
0 396 2906
0 396 3038
0 396 3170
0 396 3302
0 396 3435
0 396 3567
0 396 3699
0 396 3831
0 396 3963
0 396 4095
0 528 0
0 528 132
0 528 264
0 528 396
0 528 528
0 528 660
0 528 793
0 528 925
0 528 1057
0 528 1189
0 528 1321
0 528 1453
0 528 1585
0 528 1717
0 528 1849
0 528 1981
0 528 2114
0 528 2246
0 528 2378
0 528 2510
0 528 2642
0 528 2774
0 528 2906
0 528 3038
0 528 3170
0 528 3302
0 528 3435
0 528 3567
0 528 3699
0 528 3831
0 528 3963
0 528 4095
0 660 0
0 660 132
0 660 264
0 660 396
0 660 528
0 660 660
0 660 793
0 660 925
0 660 1057
0 660 1189
0 660 1321
0 660 1453
0 660 1585
0 660 1717
0 660 1849
0 660 1981
0 660 2114
0 660 2246
0 660 2378
0 660 2510
0 660 2642
0 660 2774
0 660 2906
0 660 3038
0 660 3170
0 660 3302
0 660 3435
0 660 3567
0 660 3699
0 660 3831
0 660 3963
0 660 4095
0 793 0
0 793 132
0 793 264
0 793 396
0 793 528
0 793 660
0 793 793
0 793 925
0 793 1057
0 793 1189
0 793 1321
0 793 1453
0 793 1585
0 793 1717
0 793 1849
0 793 1981
0 793 2114
0 793 2246
0 793 2378
0 793 2510
0 793 2642
0 793 2774
0 793 2906
0 793 3038
0 793 3170
0 793 3302
0 793 3435
0 793 3567
0 793 3699
0 793 3831
0 793 3963
0 793 4095
0 925 0
0 925 132
0 925 264
0 925 396
0 925 528
0 925 660
0 925 793
0 925 925
0 925 1057
0 925 1189
0 925 1321
0 925 1453
0 925 1585
0 925 1717
0 925 1849
0 925 1981
0 925 2114
0 925 2246
0 925 2378
0 925 2510
0 925 2642
0 925 2774
0 925 2906
0 925 3038
0 925 3170
0 925 3302
0 925 3435
0 925 3567
0 925 3699
0 925 3831
0 925 3963
0 925 4095
0 1057 0
0 1057 132
0 1057 264
0 1057 396
0 1057 528
0 1057 660
0 1057 793
0 1057 925
0 1057 1057
0 1057 1189
0 1057 1321
0 1057 1453
0 1057 1585
0 1057 1717
0 1057 1849
0 1057 1981
0 1057 2114
0 1057 2246
0 1057 2378
0 1057 2510
0 1057 2642
0 1057 2774
0 1057 2906
0 1057 3038
0 1057 3170
0 1057 3302
0 1057 3435
0 1057 3567
0 1057 3699
0 1057 3831
0 1057 3963
0 1057 4095
0 1189 0
0 1189 132
0 1189 264
0 1189 396
0 1189 528
0 1189 660
0 1189 793
0 1189 925
0 1189 1057
0 1189 1189
0 1189 1321
0 1189 1453
0 1189 1585
0 1189 1717
0 1189 1849
0 1189 1981
0 1189 2114
0 1189 2246
0 1189 2378
0 1189 2510
0 1189 2642
0 1189 2774
0 1189 2906
0 1189 3038
0 1189 3170
0 1189 3302
0 1189 3435
0 1189 3567
0 1189 3699
0 1189 3831
0 1189 3963
0 1189 4095
0 1321 0
0 1321 132
0 1321 264
0 1321 396
0 1321 528
0 1321 660
0 1321 793
0 1321 925
0 1321 1057
0 1321 1189
0 1321 1321
0 1321 1453
0 1321 1585
0 1321 1717
0 1321 1849
0 1321 1981
0 1321 2114
0 1321 2246
0 1321 2378
0 1321 2510
0 1321 2642
0 1321 2774
0 1321 2906
0 1321 3038
0 1321 3170
0 1321 3302
0 1321 3435
0 1321 3567
0 1321 3699
0 1321 3831
0 1321 3963
0 1321 4095
0 1453 0
0 1453 132
0 1453 264
0 1453 396
0 1453 528
0 1453 660
0 1453 793
0 1453 925
0 1453 1057
0 1453 1189
0 1453 1321
0 1453 1453
0 1453 1585
0 1453 1717
0 1453 1849
0 1453 1981
0 1453 2114
0 1453 2246
0 1453 2378
0 1453 2510
0 1453 2642
0 1453 2774
0 1453 2906
0 1453 3038
0 1453 3170
0 1453 3302
0 1453 3435
0 1453 3567
0 1453 3699
0 1453 3831
0 1453 3963
0 1453 4095
0 1585 0
0 1585 132
0 1585 264
0 1585 396
0 1585 528
0 1585 660
0 1585 793
0 1585 925
0 1585 1057
0 1585 1189
0 1585 1321
0 1585 1453
0 1585 1585
0 1585 1717
0 1585 1849
0 1585 1981
0 1585 2114
0 1585 2246
0 1585 2378
0 1585 2510
0 1585 2642
0 1585 2774
0 1585 2906
0 1585 3038
0 1585 3170
0 1585 3302
0 1585 3435
0 1585 3567
0 1585 3699
0 1585 3831
0 1585 3963
0 1585 4095
0 1717 0
0 1717 132
0 1717 264
0 1717 396
0 1717 528
0 1717 660
0 1717 793
0 1717 925
0 1717 1057
0 1717 1189
0 1717 1321
0 1717 1453
0 1717 1585
0 1717 1717
0 1717 1849
0 1717 1981
0 1717 2114
0 1717 2246
0 1717 2378
0 1717 2510
0 1717 2642
0 1717 2774
0 1717 2906
0 1717 3038
0 1717 3170
0 1717 3302
0 1717 3435
0 1717 3567
0 1717 3699
0 1717 3831
0 1717 3963
0 1717 4095
0 1849 0
0 1849 132
0 1849 264
0 1849 396
0 1849 528
0 1849 660
0 1849 793
0 1849 925
0 1849 1057
0 1849 1189
0 1849 1321
0 1849 1453
0 1849 1585
0 1849 1717
0 1849 1849
0 1849 1981
0 1849 2114
0 1849 2246
0 1849 2378
0 1849 2510
0 1849 2642
0 1849 2774
0 1849 2906
0 1849 3038
0 1849 3170
0 1849 3302
0 1849 3435
0 1849 3567
0 1849 3699
0 1849 3831
0 1849 3963
0 1849 4095
0 1981 0
0 1981 132
0 1981 264
0 1981 396
0 1981 528
0 1981 660
0 1981 793
0 1981 925
0 1981 1057
0 1981 1189
0 1981 1321
0 1981 1453
0 1981 1585
0 1981 1717
0 1981 1849
0 1981 1981
0 1981 2114
0 1981 2246
0 1981 2378
0 1981 2510
0 1981 2642
0 1981 2774
0 1981 2906
0 1981 3038
0 1981 3170
0 1981 3302
0 1981 3435
0 1981 3567
0 1981 3699
0 1981 3831
0 1981 3963
0 1981 4095
0 2114 0
0 2114 132
0 2114 264
0 2114 396
0 2114 528
0 2114 660
0 2114 793
0 2114 925
0 2114 1057
0 2114 1189
0 2114 1321
0 2114 1453
0 2114 1585
0 2114 1717
0 2114 1849
0 2114 1981
0 2114 2114
0 2114 2246
0 2114 2378
0 2114 2510
0 2114 2642
0 2114 2774
0 2114 2906
0 2114 3038
0 2114 3170
0 2114 3302
0 2114 3435
0 2114 3567
0 2114 3699
0 2114 3831
0 2114 3963
0 2114 4095
0 2246 0
0 2246 132
0 2246 264
0 2246 396
0 2246 528
0 2246 660
0 2246 793
0 2246 925
0 2246 1057
0 2246 1189
0 2246 1321
0 2246 1453
0 2246 1585
0 2246 1717
0 2246 1849
0 2246 1981
0 2246 2114
0 2246 2246
0 2246 2378
0 2246 2510
0 2246 2642
0 2246 2774
0 2246 2906
0 2246 3038
0 2246 3170
0 2246 3302
0 2246 3435
0 2246 3567
0 2246 3699
0 2246 3831
0 2246 3963
0 2246 4095
0 2378 0
0 2378 132
0 2378 264
0 2378 396
0 2378 528
0 2378 660
0 2378 793
0 2378 925
0 2378 1057
0 2378 1189
0 2378 1321
0 2378 1453
0 2378 1585
0 2378 1717
0 2378 1849
0 2378 1981
0 2378 2114
0 2378 2246
0 2378 2378
0 2378 2510
0 2378 2642
0 2378 2774
0 2378 2906
0 2378 3038
0 2378 3170
0 2378 3302
0 2378 3435
0 2378 3567
0 2378 3699
0 2378 3831
0 2378 3963
0 2378 4095
0 2510 0
0 2510 132
0 2510 264
0 2510 396
0 2510 528
0 2510 660
0 2510 793
0 2510 925
0 2510 1057
0 2510 1189
0 2510 1321
0 2510 1453
0 2510 1585
0 2510 1717
0 2510 1849
0 2510 1981
0 2510 2114
0 2510 2246
0 2510 2378
0 2510 2510
0 2510 2642
0 2510 2774
0 2510 2906
0 2510 3038
0 2510 3170
0 2510 3302
0 2510 3435
0 2510 3567
0 2510 3699
0 2510 3831
0 2510 3963
0 2510 4095
0 2642 0
0 2642 132
0 2642 264
0 2642 396
0 2642 528
0 2642 660
0 2642 793
0 2642 925
0 2642 1057
0 2642 1189
0 2642 1321
0 2642 1453
0 2642 1585
0 2642 1717
0 2642 1849
0 2642 1981
0 2642 2114
0 2642 2246
0 2642 2378
0 2642 2510
0 2642 2642
0 2642 2774
0 2642 2906
0 2642 3038
0 2642 3170
0 2642 3302
0 2642 3435
0 2642 3567
0 2642 3699
0 2642 3831
0 2642 3963
0 2642 4095
0 2774 0
0 2774 132
0 2774 264
0 2774 396
0 2774 528
0 2774 660
0 2774 793
0 2774 925
0 2774 1057
0 2774 1189
0 2774 1321
0 2774 1453
0 2774 1585
0 2774 1717
0 2774 1849
0 2774 1981
0 2774 2114
0 2774 2246
0 2774 2378
0 2774 2510
0 2774 2642
0 2774 2774
0 2774 2906
0 2774 3038
0 2774 3170
0 2774 3302
0 2774 3435
0 2774 3567
0 2774 3699
0 2774 3831
0 2774 3963
0 2774 4095
0 2906 0
0 2906 132
0 2906 264
0 2906 396
0 2906 528
0 2906 660
0 2906 793
0 2906 925
0 2906 1057
0 2906 1189
0 2906 1321
0 2906 1453
0 2906 1585
0 2906 1717
0 2906 1849
0 2906 1981
0 2906 2114
0 2906 2246
0 2906 2378
0 2906 2510
0 2906 2642
0 2906 2774
0 2906 2906
0 2906 3038
0 2906 3170
0 2906 3302
0 2906 3435
0 2906 3567
0 2906 3699
0 2906 3831
0 2906 3963
0 2906 4095
0 3038 0
0 3038 132
0 3038 264
0 3038 396
0 3038 528
0 3038 660
0 3038 793
0 3038 925
0 3038 1057
0 3038 1189
0 3038 1321
0 3038 1453
0 3038 1585
0 3038 1717
0 3038 1849
0 3038 1981
0 3038 2114
0 3038 2246
0 3038 2378
0 3038 2510
0 3038 2642
0 3038 2774
0 3038 2906
0 3038 3038
0 3038 3170
0 3038 3302
0 3038 3435
0 3038 3567
0 3038 3699
0 3038 3831
0 3038 3963
0 3038 4095
0 3170 0
0 3170 132
0 3170 264
0 3170 396
0 3170 528
0 3170 660
0 3170 793
0 3170 925
0 3170 1057
0 3170 1189
0 3170 1321
0 3170 1453
0 3170 1585
0 3170 1717
0 3170 1849
0 3170 1981
0 3170 2114
0 3170 2246
0 3170 2378
0 3170 2510
0 3170 2642
0 3170 2774
0 3170 2906
0 3170 3038
0 3170 3170
0 3170 3302
0 3170 3435
0 3170 3567
0 3170 3699
0 3170 3831
0 3170 3963
0 3170 4095
0 3302 0
0 3302 132
0 3302 264
0 3302 396
0 3302 528
0 3302 660
0 3302 793
0 3302 925
0 3302 1057
0 3302 1189
0 3302 1321
0 3302 1453
0 3302 1585
0 3302 1717
0 3302 1849
0 3302 1981
0 3302 2114
0 3302 2246
0 3302 2378
0 3302 2510
0 3302 2642
0 3302 2774
0 3302 2906
0 3302 3038
0 3302 3170
0 3302 3302
0 3302 3435
0 3302 3567
0 3302 3699
0 3302 3831
0 3302 3963
0 3302 4095
0 3435 0
0 3435 132
0 3435 264
0 3435 396
0 3435 528
0 3435 660
0 3435 793
0 3435 925
0 3435 1057
0 3435 1189
0 3435 1321
0 3435 1453
0 3435 1585
0 3435 1717
0 3435 1849
0 3435 1981
0 3435 2114
0 3435 2246
0 3435 2378
0 3435 2510
0 3435 2642
0 3435 2774
0 3435 2906
0 3435 3038
0 3435 3170
0 3435 3302
0 3435 3435
0 3435 3567
0 3435 3699
0 3435 3831
0 3435 3963
0 3435 4095
0 3567 0
0 3567 132
0 3567 264
0 3567 396
0 3567 528
0 3567 660
0 3567 793
0 3567 925
0 3567 1057
0 3567 1189
0 3567 1321
0 3567 1453
0 3567 1585
0 3567 1717
0 3567 1849
0 3567 1981
0 3567 2114
0 3567 2246
0 3567 2378
0 3567 2510
0 3567 2642
0 3567 2774
0 3567 2906
0 3567 3038
0 3567 3170
0 3567 3302
0 3567 3435
0 3567 3567
0 3567 3699
0 3567 3831
0 3567 3963
0 3567 4095
0 3699 0
0 3699 132
0 3699 264
0 3699 396
